X:194
T: MAN LEGT DEN BRANDENBURGER AUF EIN TISCH
N: E0100
O: Europa, Mitteleuropa, Deutschland
R: erzaehlendes Volks - Lied, Sage, Liebe, Leid, Tod
M: 4/4
L: 1/8
K: Bb
G2G2G2 | B2d2d2c2 | B4z2
B2 | B2AGF2B2 | A4G4 | F4z2
F2 | F2EDF2B2 | G3FG2
B2 | c2BAG2F2 | E4D2z2 | z2

@@@ Tune index: 3844
